X: 692
T: Ey Acep
C: Şeyh Hüseyin Halis Efendi
O: Turkey
F: http://compmusic.upf.edu/node/140
N: segah--ilahi--duyek--ey_acep--seyh_huseyin_halis_efendi
N: makam= segah
N: form= ilahi
N: usul= duyek = 8/4
M: 8/4
L: 1/16
K: C _1/4B _1/4e ^f 
Q: 1/4=120
%%MIDI tuningsystem comma53
z4 G2 B2 B4 B4  | B2 cB ^A2 c2 B2 BA B2 c2  | \
w:   |   | 
B2 B2 c2 d2 c2 d2 c2 B2  | 
w:   | 
z2 de d2 c2 B2 B^A B2 c2  | B2 z2 B2 B^A B4 c4  | \
w:   |   | 
z2 dc d2 _7/8e2 f3e d4  | 
w:   | 
z2 _7/8e4 d2 c2 B2 f2 ed  | c4 d12  | \
w:   |   | 
z4 a2 =f2 e2 d2 d4  | d2 d4 e2 d2 cB e2 ed  | 
w:   |   | 
e2 z2 e2 d2 e2 =f2 e2 d2  | d2 cB A2 c2 c4 c4  | \
w:   |   | 
c2 z2 A2 A2 A6 G2  | 
w:   | 
z2 dc d2 e2 dc BA G2 g2  | ^A2 B2 c2 d2 cB B4 B4 z4 G2 B2 B4 B4 B2 cB A2 c2 B2 BA B2  | 
w:   |   | 
c2 B2 B2 c2 d2 c2 d2 c2  | B2 z2 de d2 c2 B2 B^A B2  | \
w:   |   | 
c2 B2 z2 B2 B^A B4 c4 z2 dc d2 _7/8e2 f3e d4 z2 e4 d2 c2 B2 f2  | 
w:   | 
_7/8ed c4 d12 z4 a2 =f2 _1/4e2 d2 d4 d2 d4 e2 d2 cB e2  | \
w:   | 
ed e2 z2 e2 d2 e2 =f2 e2  | 
w:   | 
d2 d2 cB A2 c2 c4 c4 c2 z2 A2 A2 A6  | \
w:   | 
G2 z2 dc d2 e2 dc BA G2  | 
w:   | 
g2 ^A2 B2 c2 d2 cB B4  | B4 z4 B2 B2 B4  | \
w:   |   | 
g4 g2 f2 ^e2 g2 f2 fe  | 
w:   | 
f2 g2 f2 z2 f2 g2 f2 g2  | _7/8e2 d2 d2 ed e2 f2 ag fe  | \
w:   |   | 
d2 _7/8e2 d2 z2 d2 c2 d4  | 
w:   | 
_7/8e4 z2 ed e2 f2 ag fe  | d4 z2 ag a4 z2 g2  | \
w:   |   | 
f2 _7/8e2 d2 c2 f2 ed d4  | 
w:   | 
d4 z4 g2 f2 _7/8e2 d2  | a2 g2 g2 f4 g2 a2 gf  | \
w:   |   | 
_7/8ed c2 B2 c2 z2 d2 c2 f4 e2 d2 d2 dc B2 d2 dc  | 
w:   | 
cB c2 d2 c2 z2 A2 A2 A6 G2 z2 dc d2 e2 dc  | \
w:   | 
BA G2 g2 gf fe ed dc z2  | 
w:   | 
c4 B2 ^A2 B2 cd cB B6 z2 |
w:   | 


